X: 30497
T: Olga's
R: waltz
M: 3/4
K: Dmajor
|:c2 B2|A2 d2 e2|f4 g2|f4 c2|e4 cB|A2 Bc d2|e4 f2|e3 f e2|d2 c2 B2|
A2 d2 f2|a4 b2|a3 b af|g4 g2|f2 A2 d2|f4 e2|d6-|d2:|
|:f2 g2|a2 d2 f2|a3 b af|g2 B2 d2|g4 gf|e2 A2 d2|f4 e2|d2 dc df|A3 a ab|
a2 d2 f2|a4 af|g2 B2 d2|g4 f2|e2 A2 d2|f4 e2|d4 [c2d2]|d2:|

